X:376
T:Rhenländare efter Munkberg 
T:(SvL Skåne nr. 762)
R:Rhenländare
Z:Jonas Brunskog, 14/8 2008
O:Barsebäck, Skåne
S:efter Per Munkberg
B:Svenska Låtar Skåne
N:Sv. L. Sk. 762
M:2/4
L:1/16
K:D
A2|:dcdf ecdB|BAAF D2FA|AGGE C2GB|BAAF D2FA|
dcdf ecdB|BAAF D2FA|AGGF EAce|[1 d2d2 d2A2 :|[2 d2d2 d2f2|]
|:e2EF G2e2|d2FG A2d2|c2B2 A2F2|GBAG [FA]2f2|
e2EF G2e2|d2FG A2d2|cBA2 Agfe|[1d2d2 d2f2:|[2 d2d2 d2z2|]
(:musicend:)

(:music:)
